X:1
T:Title
%%score ( 1 2 ) { 3 | 4 }
L:1/8
Q:1/4=100
M:4/4
K:D
V:1 treble nm="Church Organ, Soprano"
V:2 treble 
V:3 treble nm="Church Organ, Bass"
V:4 bass 
V:1
 z4 z2 [DF]>[EG] | [FA]2 [FA]>[FA] [GB]2 [FA]>[=F^G] | [FA]4 [DF]2 [CE]>[DF] | %3
w: 1.~I~ *|stood~ at~ the~ time beat en~|por tals,~ Where~ *|
 [EG]2 [EG]>[^DF] [EG]2 [FA]>[EG] | [DF]6 [DF]>[EG] | [FA]2 [FA]>[FA] [GB]2 [FA]>[=F^G] | %6
w: man y~ a~ pil grim~ had~|passed~ Out~ *|in to~ the~ in fi nite~|
 [FA]4 [DF]2 [FA]2 | [E^G]2 [EG]>[EA] [GB]2 [Ac]>[EB] | [EA]6 [DF]>[EG] | %9
w: fu ture,~ To~|be~ with~ the~ pure~ and~ the~|blest;~ And,~ *|
 [FA]2 [FA]>[FA] [GB]2 [FA]>[=F^G] | [FA]4 [DF]2 [CE]>[DF] | [EG]2 [EG]>[^DF] [EG]2 [FA]>[EG] | %12
w: mus ing~ in~ si lent~ de|vo tion,~ E *|ter ni ty~ seemed~ to~ draw~|
 [DF]6 [FA]2 | [GB]2 [GB]>[GB] [GB]2 [Gc]>[Gc] | [Fd]4 [FA]2 F>G | %15
w: near;~ And~|strains~ from~ the~ choir~ of~ the~|faith ful~ * I~|
 [DA]2 [CA]>[DA] [EA]2 [DA]>[CG] | [DF]6 z2 | [FA]4- [FA]>[DF] (3[DF][CE][DF] | [FA]6 z2 | %19
w: seemed~ in~ my~ fan cy~ to~|hear.~|||
 [EG]4- [EG]>[EG] [FA]>[EG] | [DF]6 z2 | [GB]4- [GB]>[GB] (3[G-B][Gc][Gd] | [Fd]4 [FA]4 | %23
w: ||||
 [FA]4- [FA]>[FA] [FA]>[EG] | [DF]6 z2 |] %25
w: ||
V:2
 x8 | x8 | x8 | x8 | x8 | x8 | x8 | x8 | x8 | x8 | x8 | x8 | x8 | x8 | z4 z2 D2 | x8 | x8 | x8 | %18
 x8 | x8 | x8 | x8 | x8 | x8 | x8 |] %25
V:3
 z4 z2 A,2 | D2 D>D D2 D>D | D4[K:bass] A,2 A,2 | A,2 A,>A, A,2 A,>A, | A,6 A,2 | D2 D>D D2 D>D | %6
 D4[K:bass] A,2 D2 | B,2 B,>C[K:treble] D2 E>D | C6 A,2 | D2 D>D D2 D>D | D4[K:bass] A,2 A,2 | %11
 A,2 A,>A, A,2 A,>A, | A,6[K:treble] D2 | D2 D>D D2[K:bass] A,>A, | A,4 D2 A,2 | %15
 F,2 E,>F, G,2 F,>A, | A,6 z2 | D2 D2 D2 A,2 | A,A,A,A, A,2 z2 | A,2 A,2 A,2 A,2 | %20
 A,A, A,<A, A,2 z2 | D2 D2 D2 B,2 | A,[K:bass]A,A,A, D2 D2 | D2 D2 D2 A,2 | A,A,A,A, A,2 z2 |] %25
V:4
 z4 z2 D,2 | D,2 D,>D, D,2 D,>D, | D,4 D,2 D,2 | A,,2 A,,>A,, A,,2 A,,>A,, | D,6 D,2 | %5
 D,2 D,>D, D,2 D,>D, | D,4 D,2 D,2 | E,2 E,>E, E,2 E,>E, | A,,6 D,2 | D,2 D,>D, D,2 D,>D, | %10
 D,4 D,2 D,2 | A,,2 A,,>A,, A,,2 A,,>A,, | D,6 D,2 | G,2 G,>G, G,2 E,>E, | D,4 D,2 D,2 | %15
 A,,2 A,,>A,, A,,2 A,,>A,, | D,6 z2 | D,2 D,2 D,2 D,2 | D,D,D,D, D,2 z2 | A,,2 A,,2 A,,2 A,,2 | %20
 D,D, D,<D, D,2 z2 | G,2 G,2 G,2 G,2 | D,D,D,D, D,2 D,2 | A,2 A,2 A,,2 A,,2 | D,D,D,D, D,2 z2 |] %25

